X:1
T:Fur Elise
T:Für Elise
T:Ludwig van Beethoven
C:Ludwig van Beethoven
%%score { 1 | 2 }
L:1/8
Q:1/4=92
M:3/4
K:C
V:1 treble nm="Piano" snm="Pno."
V:2 bass 
V:1
!pp! (e^d |!<(! e^de!<)!!>(!B=dc!>)! | A2) z (CEA | B2) z (E^GB | c2) z (Ee^d | %5
!<(! e^de!<)!!>(!B=dc!>)! | A2) z (CEA | B2) z ((EcB |1 A4) :|2 A2) z!<(! (Bcd!<)! |: %10
!mf! e3) (Gfe | d3) (Fed | c3) (Edc | B2) z (Ee) z | z (ee')"_dim." z z (^d | e) z z!pp! (^ded | %16
!<(! e^de!<)!!>(!B=dc!>)! | A2) z (CEA | B2) z (E^GB | c2) z (Ee^d |!<(! e^de!<)!!>(!B=dc!>)! | %21
 A2) z (CEA |1 B2) z (EcB | A2) z (Bcd) :|2 (B2 z) (DcB | [CA]4) |] %26
V:2
 z2 | z6 |!ped! A,,E,A,!ped-up! z z2 |!ped! (E,,E,^G,)!ped-up! z z2 |!ped! (A,,E,A,)!ped-up! z z2 | %5
 z6 |!ped! (A,,E,A,)!ped-up! z z2 |!ped! E,,E,^G,!ped-up! z z2 |1!ped! (A,,E,A,)!ped-up! z :|2 %9
!ped! (A,,E,A,)!ped-up! z z2 |:!ped! (C,G,C)!ped-up! z z2 |!ped! (G,,G,B,)!ped-up! z z2 | %12
!ped! (A,,E,A,)!ped-up! z z2 |!ped! E,,(E,E) z z[K:treble] E | e z z!ped-up! (^de) z | %15
 z (^de) z z2 | z6 |[K:bass]!ped! (A,,E,A,)!ped-up! z z2 | %18
"_pedal simile"!ped! (E,,E,^G,)!ped-up! z z2 |!ped! (A,,E,A,)!ped-up! z z2 | z6 | %21
!ped! (A,,E,A,)!ped-up! z z2 |1!ped! (E,,E,^G,)!ped-up! z z2 |!ped! (A,,E,A,)!ped-up! z z2 :|2 %24
!ped! (E,,E,"^dim. e poco rit."^G,)!ped-up! z z2 | A,,,4 |] %26

